dist/styles/ag-theme-alpine/icons/right.svg

<!-- Generated by IcoMoon.io -->
<svg version="1.1" xmlns="http://www.w3.org/2000/svg" width="32" height="32" viewBox="0 0 32 32">
<title>right</title>
<path d="M16 5.333l-1.88 1.88 7.44 7.453h-16.227v2.667h16.227l-7.44 7.453 1.88 1.88 10.667-10.667-10.667-10.667z"></path>
</svg>

<?xml version="1.0" encoding="UTF-8" standalone="no"?>
<!DOCTYPE svg PUBLIC "-//W3C//DTD SVG 1.1//EN" "http://www.w3.org/Graphics/SVG/1.1/DTD/svg11.dtd">
<svg width="100%" height="100%" viewBox="0 0 32 32" version="1.1" xmlns="http://www.w3.org/2000/svg" xmlns:xlink="http://www.w3.org/1999/xlink" xml:space="preserve" xmlns:serif="http://www.serif.com/" style="fill-rule:evenodd;clip-rule:evenodd;stroke-linejoin:round;stroke-miterlimit:2;">
    <path id="right" d="M16,5.333L14.12,7.213L21.56,14.666L5.333,14.666L5.333,17.333L21.56,17.333L14.12,24.786L16,26.666L26.667,15.999L16,5.332L16,5.333Z" style="fill-rule:nonzero;"/>
</svg>
